X:196
T:FOUR SEASONS, The
B:"Irish Folk Dance Music" (J. O'Brien)
F:job/196fsh
Z:bill@capeirish.com
Q:150
M:C|
R:hornpipe
N:G/B/G/F/ = GF, B/c/B/A/ = BA
K:G
D2|G2 G/B/G/F/ GBdG|c2 B/c/B/A/ Bdge|d^cde dBGA|BedB AFDF|
G2 G/B/G/F/ GBdG|c2 B/c/B/A/ Bdge|d^cde dBGB|A^GAB =G2 :|
(3Bc^c|d2dB degf|edef gfge|d^cde dBGA|BedB AFDF|
G2 G/B/G/F/ GBdG|c2 B/c/B/A/ Bdge|d^cde dBGB|A^GAB =G2 :|

